src/components/Icon/utils/svgsOptimized/link-remove.svg

<svg width="24" height="24" viewBox="0 0 24 24"  xmlns="http://www.w3.org/2000/svg">
<path d="M9.40842 17.4139L13.1678 6.11275C13.2323 5.91885 13.4418 5.81395 13.6357 5.87845L14.3568 6.11835C14.5507 6.18285 14.6556 6.39232 14.5911 6.58622L10.8317 17.8873C10.7672 18.0812 10.5578 18.1861 10.3639 18.1216L9.64271 17.8817C9.44881 17.8172 9.34391 17.6078 9.40842 17.4139Z" />
<path d="M8.10002 14.5579C7.00002 14.5579 5.96002 13.6479 5.75002 12.4579C5.72002 12.3079 5.70002 12.1579 5.70002 12.0079C5.70002 11.8579 5.72002 11.6979 5.75002 11.5579C5.97002 10.3679 7.00002 9.45792 8.10002 9.45792H9.87002C10.05 9.45792 10.2 9.30792 10.2 9.12792V8.58792C10.2 8.40792 10.05 8.25792 9.87002 8.25792H8.06002C6.04002 8.25792 4.31002 9.80792 4.21002 11.8179C4.10002 13.9679 5.82001 15.7579 7.95002 15.7579H8.67002C8.85002 15.7579 9.00002 15.6079 9.00002 15.4279V14.8879C9.00002 14.7079 8.85002 14.5579 8.67002 14.5579H8.10002Z" />
<path d="M15.9 14.5579C17 14.5579 18.04 13.6479 18.25 12.4579C18.28 12.3079 18.3 12.1579 18.3 12.0079C18.3 11.8479 18.28 11.6979 18.25 11.5579C18.03 10.3679 17 9.45792 15.9 9.45792H15.33C15.15 9.45792 15 9.30792 15 9.12792V8.58792C15 8.40792 15.15 8.25792 15.33 8.25792H15.94C17.96 8.25792 19.69 9.80792 19.79 11.8179C19.9 13.9679 18.18 15.7579 16.05 15.7579H14.13C13.95 15.7579 13.8 15.6079 13.8 15.4279V14.8879C13.8 14.7079 13.95 14.5579 14.13 14.5579H15.9Z" />
</svg>

<?xml version="1.0" encoding="utf-8"?><svg width="24" height="24" xmlns="http://www.w3.org/2000/svg" viewBox="0 0 24 24"><path d="m9.408 17.414 3.76-11.301a.37.37 0 0 1 .468-.235l.72.24a.37.37 0 0 1 .235.468l-3.76 11.301a.37.37 0 0 1-.467.235l-.721-.24a.37.37 0 0 1-.235-.468ZM8.1 14.558c-1.1 0-2.14-.91-2.35-2.1-.03-.15-.05-.3-.05-.45 0-.15.02-.31.05-.45.22-1.19 1.25-2.1 2.35-2.1h1.77c.18 0 .33-.15.33-.33v-.54c0-.18-.15-.33-.33-.33H8.06c-2.02 0-3.75 1.55-3.85 3.56a3.75 3.75 0 0 0 3.74 3.94h.72c.18 0 .33-.15.33-.33v-.54c0-.18-.15-.33-.33-.33H8.1Zm7.8 0c1.1 0 2.14-.91 2.35-2.1.03-.15.05-.3.05-.45 0-.16-.02-.31-.05-.45-.22-1.19-1.25-2.1-2.35-2.1h-.57c-.18 0-.33-.15-.33-.33v-.54c0-.18.15-.33.33-.33h.61c2.02 0 3.75 1.55 3.85 3.56a3.75 3.75 0 0 1-3.74 3.94h-1.92c-.18 0-.33-.15-.33-.33v-.54c0-.18.15-.33.33-.33h1.77Z"/></svg>
